static/images/2.svg

<svg width="90" height="90" viewBox="0 0 90 90" fill="none" xmlns="http://www.w3.org/2000/svg">
<circle cx="45.0323" cy="44.8874" r="44.8874" fill="#54E78F"/>
<g filter="url(#filter0_d)">
<path d="M53.6658 53.059C55.0295 53.059 56.0368 53.3379 56.6876 53.8958C57.3695 54.4227 57.7104 55.2595 57.7104 56.4062C57.7104 57.584 57.3695 58.4518 56.6876 59.0096C56.0368 59.5675 55.0295 59.8464 53.6658 59.8464H36.6972C35.5814 59.8464 34.6981 59.521 34.0473 58.8702C33.3964 58.1883 33.071 57.336 33.071 56.3132C33.071 54.9805 33.5979 53.7718 34.6516 52.6871L44.5074 42.4129C46.5529 40.2744 47.5757 38.3063 47.5757 36.5087C47.5757 35.455 47.2658 34.6492 46.6459 34.0913C46.057 33.5334 45.2047 33.2545 44.089 33.2545C43.1902 33.2545 42.3534 33.394 41.5786 33.6729C40.8347 33.9208 39.9669 34.2928 38.9752 34.7886L38.0454 35.2535C37.9214 35.3155 37.6735 35.455 37.3015 35.6719C36.9606 35.8579 36.6507 35.9974 36.3718 36.0903C36.0928 36.1833 35.7984 36.2298 35.4885 36.2298C34.7136 36.2298 34.0628 35.8889 33.5359 35.207C33.009 34.4942 32.7456 33.6574 32.7456 32.6966C32.7456 32.0148 32.8386 31.4569 33.0245 31.023C33.2415 30.5891 33.6289 30.1862 34.1868 29.8143C35.6434 28.8225 37.2706 28.0477 39.0681 27.4898C40.8967 26.9319 42.6943 26.653 44.4609 26.653C46.7544 26.653 48.7689 27.0404 50.5045 27.8152C52.2401 28.5591 53.5728 29.6438 54.5026 31.0695C55.4634 32.4642 55.9438 34.0758 55.9438 35.9044C55.9438 37.795 55.5564 39.5306 54.7816 41.1112C54.0377 42.6608 52.7515 44.3965 50.9229 46.318L44.3214 53.059H53.6658Z" fill="white"/>
<path d="M56.6876 53.8958L56.0368 54.655L56.0561 54.6716L56.0762 54.6871L56.6876 53.8958ZM56.6876 59.0096L56.0544 58.2357L56.0455 58.2429L56.0368 58.2504L56.6876 59.0096ZM34.0473 58.8702L33.3239 59.5606L33.332 59.569L33.3402 59.5773L34.0473 58.8702ZM34.6516 52.6871L35.3689 53.3839L35.3733 53.3793L34.6516 52.6871ZM44.5074 42.4129L45.2291 43.1052L45.23 43.1041L44.5074 42.4129ZM46.6459 34.0913L45.9582 34.8173L45.9674 34.826L45.977 34.8346L46.6459 34.0913ZM41.5786 33.6729L41.8948 34.6216L41.9061 34.6178L41.9173 34.6138L41.5786 33.6729ZM38.9752 34.7886L38.5279 33.8942L38.5279 33.8942L38.9752 34.7886ZM38.0454 35.2535L37.5982 34.3591L37.5982 34.3591L38.0454 35.2535ZM37.3015 35.6719L37.7804 36.5498L37.793 36.543L37.8054 36.5357L37.3015 35.6719ZM36.3718 36.0903L36.0555 35.1417L36.0555 35.1417L36.3718 36.0903ZM33.5359 35.207L32.7317 35.8014L32.7381 35.81L32.7446 35.8185L33.5359 35.207ZM33.0245 31.023L32.1301 30.5758L32.1169 30.6021L32.1054 30.6291L33.0245 31.023ZM34.1868 29.8143L34.7415 30.6464L34.7495 30.6409L34.1868 29.8143ZM39.0681 27.4898L38.7763 26.5333L38.7717 26.5347L39.0681 27.4898ZM50.5045 27.8152L50.0969 28.7284L50.1037 28.7314L50.1106 28.7344L50.5045 27.8152ZM54.5026 31.0695L53.665 31.6158L53.6719 31.6264L53.6791 31.6368L54.5026 31.0695ZM54.7816 41.1112L53.8836 40.671L53.88 40.6785L54.7816 41.1112ZM50.9229 46.318L51.6374 47.0177L51.6424 47.0126L51.6474 47.0074L50.9229 46.318ZM44.3214 53.059L43.607 52.3593L41.9425 54.059H44.3214V53.059ZM53.6658 54.059C54.9239 54.059 55.6476 54.3214 56.0368 54.655L57.3384 53.1365C56.4259 52.3544 55.1351 52.059 53.6658 52.059V54.059ZM56.0762 54.6871C56.437 54.9659 56.7104 55.4586 56.7104 56.4062H58.7104C58.7104 55.0604 58.3019 53.8794 57.2991 53.1045L56.0762 54.6871ZM56.7104 56.4062C56.7104 57.3918 56.4319 57.9268 56.0544 58.2357L57.3209 59.7836C58.3071 58.9767 58.7104 57.7761 58.7104 56.4062H56.7104ZM56.0368 58.2504C55.6476 58.584 54.9239 58.8464 53.6658 58.8464V60.8464C55.1351 60.8464 56.4259 60.551 57.3384 59.7689L56.0368 58.2504ZM53.6658 58.8464H36.6972V60.8464H53.6658V58.8464ZM36.6972 58.8464C35.7866 58.8464 35.1791 58.5878 34.7544 58.1631L33.3402 59.5773C34.2171 60.4542 35.3763 60.8464 36.6972 60.8464V58.8464ZM34.7706 58.1797C34.3132 57.7005 34.071 57.1028 34.071 56.3132H32.071C32.071 57.5692 32.4796 58.6761 33.3239 59.5606L34.7706 58.1797ZM34.071 56.3132C34.071 55.2764 34.47 54.3092 35.3689 53.3839L33.9344 51.9903C32.7258 53.2344 32.071 54.6847 32.071 56.3132H34.071ZM35.3733 53.3793L45.2291 43.1052L43.7858 41.7206L33.93 51.9948L35.3733 53.3793ZM45.23 43.1041C47.3449 40.8931 48.5757 38.6869 48.5757 36.5087H46.5757C46.5757 37.9258 45.7609 39.6557 43.7848 41.7217L45.23 43.1041ZM48.5757 36.5087C48.5757 35.2515 48.1984 34.1431 47.3149 33.348L45.977 34.8346C46.3332 35.1552 46.5757 35.6585 46.5757 36.5087H48.5757ZM47.3337 33.3653C46.4987 32.5744 45.3633 32.2545 44.089 32.2545V34.2545C45.0462 34.2545 45.6154 34.4925 45.9582 34.8173L47.3337 33.3653ZM44.089 32.2545C43.0853 32.2545 42.1328 32.4105 41.2399 32.732L41.9173 34.6138C42.574 34.3774 43.2951 34.2545 44.089 34.2545V32.2545ZM41.2623 32.7242C40.4595 32.9918 39.5462 33.3851 38.5279 33.8942L39.4224 35.6831C40.3877 35.2004 41.21 34.8498 41.8948 34.6216L41.2623 32.7242ZM38.5279 33.8942L37.5982 34.3591L38.4926 36.148L39.4224 35.6831L38.5279 33.8942ZM37.5982 34.3591C37.4403 34.438 37.1642 34.5943 36.7977 34.8082L37.8054 36.5357C38.1827 36.3156 38.4025 36.193 38.4926 36.148L37.5982 34.3591ZM36.8227 34.794C36.5183 34.9601 36.2637 35.0723 36.0555 35.1417L36.688 37.039C37.0377 36.9225 37.4029 36.7557 37.7804 36.5498L36.8227 34.794ZM36.0555 35.1417C35.884 35.1988 35.6968 35.2298 35.4885 35.2298V37.2298C35.9 37.2298 36.3017 37.1678 36.688 37.039L36.0555 35.1417ZM35.4885 35.2298C35.061 35.2298 34.689 35.0638 34.3272 34.5956L32.7446 35.8185C33.4366 36.714 34.3663 37.2298 35.4885 37.2298V35.2298ZM34.3401 34.6127C33.9512 34.0866 33.7456 33.4624 33.7456 32.6966H31.7456C31.7456 33.8524 32.0668 34.9019 32.7317 35.8014L34.3401 34.6127ZM33.7456 32.6966C33.7456 32.0948 33.8292 31.6839 33.9437 31.4169L32.1054 30.6291C31.8479 31.2299 31.7456 31.9347 31.7456 32.6966H33.7456ZM33.9189 31.4702C34.0339 31.2403 34.2756 30.9569 34.7415 30.6463L33.6321 28.9822C32.9821 29.4155 32.449 29.9379 32.1301 30.5758L33.9189 31.4702ZM34.7495 30.6409C36.1189 29.7086 37.6552 28.9754 39.3645 28.4449L38.7717 26.5347C36.8859 27.12 35.168 27.9364 33.624 28.9877L34.7495 30.6409ZM39.3599 28.4463C41.1017 27.9149 42.801 27.653 44.4609 27.653V25.653C42.5877 25.653 40.6918 25.949 38.7763 26.5333L39.3599 28.4463ZM44.4609 27.653C46.6424 27.653 48.5132 28.0214 50.0969 28.7284L50.9122 26.9021C49.0246 26.0594 46.8664 25.653 44.4609 25.653V27.653ZM50.1106 28.7344C51.6854 29.4093 52.8547 30.3733 53.665 31.6158L55.3402 30.5232C54.291 28.9143 52.7949 27.7088 50.8985 26.8961L50.1106 28.7344ZM53.6791 31.6368C54.5157 32.8512 54.9438 34.2615 54.9438 35.9044H56.9438C56.9438 33.8902 56.4111 32.0772 55.3261 30.5022L53.6791 31.6368ZM54.9438 35.9044C54.9438 37.6539 54.5864 39.2374 53.8836 40.671L55.6795 41.5514C56.5264 39.8237 56.9438 37.936 56.9438 35.9044H54.9438ZM53.88 40.6785C53.199 42.0972 51.9897 43.7464 50.1985 45.6287L51.6474 47.0074C53.5133 45.0465 54.8764 43.2245 55.6831 41.5439L53.88 40.6785ZM50.2085 45.6183L43.607 52.3593L45.0359 53.7587L51.6374 47.0177L50.2085 45.6183ZM44.3214 54.059H53.6658V52.059H44.3214V54.059Z" fill="black" fill-opacity="0.14"/>
</g>
<defs>
<filter id="filter0_d" x="21.7456" y="20.653" width="46.9648" height="55.1934" filterUnits="userSpaceOnUse" color-interpolation-filters="sRGB">
<feFlood flood-opacity="0" result="BackgroundImageFix"/>
<feColorMatrix in="SourceAlpha" type="matrix" values="0 0 0 0 0 0 0 0 0 0 0 0 0 0 0 0 0 0 127 0"/>
<feOffset dy="5"/>
<feGaussianBlur stdDeviation="5"/>
<feColorMatrix type="matrix" values="0 0 0 0 0 0 0 0 0 0 0 0 0 0 0 0 0 0 0.39 0"/>
<feBlend mode="normal" in2="BackgroundImageFix" result="effect1_dropShadow"/>
<feBlend mode="normal" in="SourceGraphic" in2="effect1_dropShadow" result="shape"/>
</filter>
</defs>
</svg>

<svg width="90" height="90" fill="none" xmlns="http://www.w3.org/2000/svg"><circle cx="45.032" cy="44.887" r="44.887" fill="#54E78F"/><g filter="url(#filter0_d)"><path d="M53.666 53.059c1.364 0 2.37.279 3.022.837.681.527 1.022 1.364 1.022 2.51 0 1.178-.34 2.046-1.022 2.604-.651.558-1.659.836-3.022.836H36.697c-1.116 0-1.999-.325-2.65-.976-.65-.682-.976-1.534-.976-2.557 0-1.333.527-2.541 1.58-3.626l9.856-10.274c2.046-2.139 3.069-4.107 3.069-5.904 0-1.054-.31-1.86-.93-2.418-.589-.558-1.441-.837-2.557-.837a7.35 7.35 0 0 0-2.51.419c-.744.248-1.612.62-2.604 1.116l-.93.465c-.124.062-.372.201-.744.418a5.81 5.81 0 0 1-.93.418c-.278.093-.573.14-.883.14-.774 0-1.425-.341-1.952-1.023-.527-.713-.79-1.55-.79-2.51 0-.682.093-1.24.279-1.674.217-.434.604-.837 1.162-1.209 1.456-.991 3.084-1.766 4.881-2.324 1.829-.558 3.626-.837 5.393-.837 2.293 0 4.308.387 6.044 1.162 1.735.744 3.068 1.829 3.998 3.255.96 1.394 1.44 3.006 1.44 4.834 0 1.891-.387 3.627-1.161 5.207-.744 1.55-2.03 3.286-3.86 5.207l-6.6 6.741h9.344z" fill="#fff"/><path d="M56.688 53.896l-.651.759.02.017.02.015.61-.791zm0 5.114l-.634-.774-.009.007-.008.007.65.76zm-22.64-.14l-.724.69.008.009.008.008.707-.707zm.604-6.183l.717.697.004-.005-.721-.692zm9.855-10.274l.722.692h.001l-.723-.692zm2.139-8.322l-.688.726.01.009.009.009.669-.744zm-5.067-.418l.316.949.011-.004.011-.004-.338-.941zm-2.604 1.116l-.447-.895.447.895zm-.93.465l-.447-.895.447.895zm-.744.418l.48.878.012-.007.012-.007-.504-.864zm-.93.418l-.316-.948.317.948zm-2.835-.883l-.804.594.006.009.007.008.79-.611zm-.511-4.184l-.895-.447-.013.026-.012.027.92.394zm1.162-1.209l.555.832.008-.005-.563-.827zm4.881-2.324l-.292-.957-.004.002.296.955zm11.437.325l-.408.913.007.003.007.003.394-.919zm3.998 3.255l-.838.546.007.01.007.01.824-.566zm.279 10.041l-.898-.44-.004.008.902.432zm-3.86 5.207l.715.7.005-.005.005-.006-.724-.689zm-6.6 6.741l-.715-.7-1.664 1.7h2.378v-1zm9.344 1c1.258 0 1.982.262 2.37.596l1.302-1.519c-.912-.782-2.203-1.077-3.672-1.077v2zm2.41.628c.361.279.634.772.634 1.72h2c0-1.347-.408-2.528-1.41-3.302l-1.224 1.582zm.634 1.72c0 .985-.278 1.52-.656 1.829l1.267 1.548c.986-.807 1.39-2.008 1.39-3.378h-2zm-.673 1.843c-.39.334-1.113.596-2.371.596v2c1.47 0 2.76-.295 3.672-1.077l-1.301-1.519zm-2.371.596H36.697v2h16.969v-2zm-16.969 0c-.91 0-1.518-.258-1.943-.683l-1.414 1.414c.877.877 2.036 1.27 3.357 1.27v-2zm-1.926-.666c-.458-.48-.7-1.077-.7-1.867h-2c0 1.256.409 2.363 1.253 3.248l1.447-1.381zm-.7-1.867c0-1.037.399-2.004 1.298-2.93l-1.435-1.393c-1.208 1.244-1.863 2.695-1.863 4.323h2zm1.302-2.934l9.856-10.274-1.443-1.384-9.856 10.274 1.443 1.384zm9.857-10.275c2.115-2.21 3.346-4.417 3.346-6.595h-2c0 1.417-.815 3.147-2.791 5.213l1.445 1.382zm3.346-6.595c0-1.258-.378-2.366-1.261-3.161l-1.338 1.487c.356.32.599.823.599 1.674h2zm-1.242-3.144c-.835-.79-1.97-1.11-3.245-1.11v2c.957 0 1.526.237 1.87.562l1.375-1.452zm-3.245-1.11a8.355 8.355 0 0 0-2.85.477l.678 1.882a6.36 6.36 0 0 1 2.172-.36v-2zm-2.827.47c-.803.267-1.716.66-2.734 1.17l.894 1.788c.966-.483 1.788-.833 2.473-1.061l-.633-1.898zm-2.734 1.17l-.93.464.895 1.789.93-.465-.895-1.789zm-.93.464c-.158.079-.434.235-.8.45l1.007 1.727c.378-.22.598-.343.688-.388l-.895-1.789zm-.775.435a4.836 4.836 0 0 1-.767.348l.632 1.897c.35-.117.715-.283 1.092-.49l-.957-1.755zm-.767.348a1.777 1.777 0 0 1-.567.088v2c.411 0 .813-.062 1.199-.191l-.633-1.897zm-.567.088c-.428 0-.8-.166-1.162-.634l-1.582 1.223c.692.895 1.621 1.41 2.744 1.41v-2zm-1.149-.617c-.389-.526-.594-1.15-.594-1.916h-2c0 1.155.32 2.205.986 3.104l1.608-1.188zm-.594-1.916c0-.602.083-1.013.198-1.28l-1.839-.788c-.257.6-.36 1.306-.36 2.068h2zm.173-1.227c.115-.23.357-.513.823-.824l-1.11-1.664c-.65.434-1.183.956-1.502 1.594l1.789.894zm.83-.83c1.37-.931 2.906-1.665 4.615-2.195l-.592-1.91c-1.886.585-3.604 1.401-5.148 2.453l1.125 1.653zm4.61-2.194c1.743-.531 3.442-.793 5.102-.793v-2c-1.873 0-3.77.296-5.685.88l.584 1.913zm5.102-.793c2.181 0 4.052.368 5.636 1.075l.815-1.826c-1.887-.843-4.046-1.249-6.451-1.249v2zm5.65 1.081c1.574.675 2.744 1.64 3.554 2.882l1.675-1.093c-1.049-1.609-2.545-2.814-4.442-3.627l-.787 1.838zm3.568 2.903c.837 1.214 1.265 2.624 1.265 4.267h2c0-2.014-.533-3.827-1.618-5.402l-1.647 1.135zm1.265 4.267c0 1.75-.358 3.333-1.06 4.767l1.795.88c.847-1.727 1.265-3.615 1.265-5.647h-2zm-1.064 4.774c-.681 1.42-1.89 3.068-3.681 4.95l1.448 1.38c1.866-1.962 3.23-3.784 4.036-5.464l-1.803-.865zm-3.672 4.94l-6.601 6.741 1.429 1.4 6.601-6.741-1.428-1.4zm-5.887 8.441h9.345v-2H44.32v2z" fill="#000" fill-opacity=".14"/></g><defs><filter id="filter0_d" x="21.746" y="20.653" width="46.965" height="55.193" filterUnits="userSpaceOnUse" color-interpolation-filters="sRGB"><feFlood flood-opacity="0" result="BackgroundImageFix"/><feColorMatrix in="SourceAlpha" values="0 0 0 0 0 0 0 0 0 0 0 0 0 0 0 0 0 0 127 0"/><feOffset dy="5"/><feGaussianBlur stdDeviation="5"/><feColorMatrix values="0 0 0 0 0 0 0 0 0 0 0 0 0 0 0 0 0 0 0.39 0"/><feBlend in2="BackgroundImageFix" result="effect1_dropShadow"/><feBlend in="SourceGraphic" in2="effect1_dropShadow" result="shape"/></filter></defs></svg>
